X:1
T:Rue des Prés
C:Stéphane Durand
M:4/4
L:1/8
R:Schottische
N:The chords are meant to be exciting, intersperse them with 
N: some more boring ones (particularly on the second half of the B part!)
K:G
"G"B2G2 G"G/B"BAG|"Bm7"B2F2 FBBd|"C"c3B "Am7"AGAB|"C/D"B2A2A2GA|
"G"B2G2 GBAG|"D/G"B2F2 FBBd|"Am7"c3B AGAB|1"D/F#"A6 GA:|2"D/F#"A3B ABcd||
|:"C"eg e3 dcd|"C/E"ef "C/D"g4 fe|"D"d3e "G/B"d2 Bd|"Em7"G6 EF|
"Em"G2G2 "Em/D"GEGA|"Em/B"B2F2F2 Bd|"Em/C"c3 B AGAB|1"Em/D"A3 B ABcd:|2"D"A6 GA|]
